X: 4
T: Bill Harte's
R: jig
M: 6/8
L: 1/8
K: Dmix
|:D3 A3|BAG A3|D3 A3|BAG E3|
D3 A3|BAG ABc|d2B c2A|BAG E2D:||
|:d2B c2A|BAG ABc|d2B c2A|BAG E2D|
dcB cBA|BAG ABc|d3 c2A|BAG E2D:||


